X:10922
T:Miss McCloud's Reel
M:2/4
L:1/16
K:G
BA|G2g2 edeg|B2BA BcBA|G2g2 edeg|A2AG AcBA|!
G2g2 edeg|B2BA Bcd2|e3f edef|gedB G2:|!
|:BA|GABc dBGA|B2BA BcBA|GABc dBGB|A2AG AcBA|!
GABc dBGA|B2BA Bcd2|e3f edef|gedB G2:|!
